X: 39763
T: Thank God It's Friar Dee
R: polka
M: 2/4
K: Dmajor
|:d>d dB|BA FA|d>d df|fe e2|
d>d dB|BA FA|d/c/d/e/ fe|ed d2:|
|:e>e ef|ge e2|d>d dB|BA FA|
e>e ef|ge e2|f/g/a/f/ gc|d2 d2:|

